X:481
T:Lord Down
R:Strathspey
B:The Athole Collection
M:C
L:1/8
K:G Minor
g|G<G d>c d<G G>f|F<F c<A c<F F>g|G<G c>c c<G G>c|f<d c<A G2G:|
d|g>ab>g d>gb>g|f>ga>f c>fa>f|g>ab>g d<gA<f|A<F c>A G2 G>d|
g>ab>g d>gb>g|f>ga>f c>fa>f|G>AB>c d>g b>g|f<dc<A G2G||

